svgs/thin/phone-volume.svg

<svg xmlns="http://www.w3.org/2000/svg" viewBox="0 0 512 512"><!--! Font Awesome Pro 6.0.0-alpha3 by @fontawesome - https://fontawesome.com License - https://fontawesome.com/license (Commercial License) --><path d="M151.3 174.6c.8066 .082 1.613 .1211 2.412 .1211c9.715 0 18.61-5.9 22.3-15.06l33.75-84.38C214 64.35 209.1 51.1 200.2 45.86l-67.47-42.17C128.7 1.213 124.3 0 119.9 0C113.7 0 107.6 2.414 102.9 7.08C-34.32 144.3-34.31 367.7 102.9 504.9C107.6 509.6 113.7 512 119.9 512c4.387 0 8.801-1.209 12.75-3.688l67.48-42.19c9.775-6.104 13.9-18.47 9.598-29.3L176 352.5c-3.631-9.168-12.55-15.11-22.21-15.11c-.8379 0-1.678 .0449-2.522 .1348l-53.24 5.314C78.89 286.7 78.89 225.4 98.06 169.3L151.3 174.6zM82.91 164.1c-20.24 59.29-20.23 124.6 .0176 183.9l4.102 12.01l66.8-6.631c3.203 0 6.152 2.008 7.355 5.047l33.71 84.29c1.42 3.576 .0449 7.803-3.207 9.834l-67.5 42.2C122.9 495.6 121.4 496 119.9 496c-2.117 0-4.137-.8535-5.688-2.404C50.89 430.2 16 345.9 16 256c0-89.86 34.9-174.2 98.26-237.6C115.8 16.85 117.8 16 119.9 16c1.482 0 2.947 .4297 4.275 1.266l67.48 42.18C194.1 61.51 196.3 65.7 194.9 69.29L161.2 153.6C160 156.6 156.1 158.6 152.1 158.6c-.041 0 .041 0 0 0L87.01 152.1L82.91 164.1zM388.7 15.56C385.1 13 380.1 13.78 377.5 17.39c-2.562 3.594-1.75 8.594 1.844 11.17C452.4 81.11 496 166.1 496 256s-43.63 174.9-116.7 227.4c-3.594 2.578-4.406 7.578-1.844 11.17C379.1 496.8 381.5 497.9 384 497.9c1.625 0 3.25-.4844 4.656-1.5C465.9 440.9 512 350.1 512 255.1S465.9 71.11 388.7 15.56zM324.3 87.86c-3.719-2.391-8.625-1.344-11.06 2.375c-2.406 3.719-1.344 8.672 2.375 11.06C368.5 135.4 400 193.2 400 256s-31.53 120.6-84.34 154.7c-3.719 2.391-4.781 7.344-2.375 11.06C314.8 424.1 317.4 425.4 320 425.4c1.5 0 3-.4062 4.344-1.281C381.8 387.1 416 324.2 416 255.1S381.8 124.9 324.3 87.86zM259.3 161.4C255.3 159.6 250.6 161.4 248.7 165.4c-1.844 4.016-.0625 8.766 3.938 10.61C283.8 190.3 304 221.7 304 256s-20.16 65.72-51.34 80.03c-4 1.844-5.781 6.594-3.938 10.61C250.1 349.6 252.1 351.3 256 351.3c1.125 0 2.25-.2344 3.344-.7344c36.84-16.91 60.66-54.04 60.66-94.57S296.2 178.3 259.3 161.4z"/></svg>

<svg xmlns="http://www.w3.org/2000/svg" viewBox="0 0 512 512"><!-- Font Awesome Pro 6.0.0-alpha2 by @fontawesome - https://fontawesome.com License - https://fontawesome.com/license (Commercial License) --><path d="M151.334 174.557C152.14 174.639 152.947 174.678 153.746 174.678C163.461 174.678 172.355 168.777 176.049 159.619L209.799 75.234C214.049 64.354 209.994 52 200.15 45.863L132.683 3.697C128.734 1.213 124.314 0 119.927 0C113.738 0 107.611 2.414 102.945 7.08C-34.319 144.342 -34.309 367.666 102.937 504.91C107.611 509.584 113.746 512 119.939 512C124.326 512 128.74 510.791 132.691 508.312L200.176 466.127C209.951 460.023 214.074 447.654 209.773 436.822L176.049 352.498C172.418 343.33 163.494 337.393 153.84 337.393C153.002 337.393 152.162 337.438 151.318 337.527L98.074 342.842C78.894 286.664 78.886 225.412 98.056 169.26L151.334 174.557ZM82.914 164.09C62.676 223.377 62.681 288.695 82.931 348.012L87.033 360.023L99.664 358.764L153.838 353.393C157.041 353.393 159.99 355.4 161.193 358.439L194.902 442.727C196.322 446.303 194.947 450.529 191.695 452.561L124.191 494.758C122.894 495.57 121.424 496 119.939 496C117.822 496 115.802 495.146 114.252 493.596C50.892 430.24 16 345.859 16 256.002C16 166.141 50.896 81.756 114.26 18.395C115.802 16.85 117.814 16 119.927 16C121.41 16 122.875 16.43 124.203 17.266L191.685 59.441C194.996 61.506 196.345 65.699 194.943 69.293L161.209 153.637C160.006 156.621 157.056 158.637 153.043 158.637C153.002 158.637 152.959 158.635 152.918 158.635L99.64 153.338L87.013 152.084L82.914 164.09ZM388.656 15.562C385.094 13 380.094 13.781 377.5 17.391C374.937 20.984 375.75 25.984 379.344 28.562C452.375 81.109 496 166.125 496 256S452.375 430.891 379.344 483.438C375.75 486.016 374.937 491.016 377.5 494.609C379.062 496.781 381.531 497.938 384 497.938C385.625 497.938 387.25 497.453 388.656 496.438C465.906 440.891 512 351 512 256S465.906 71.109 388.656 15.562ZM324.344 87.859C320.625 85.469 315.719 86.516 313.281 90.234C310.875 93.953 311.937 98.906 315.656 101.297C368.469 135.406 400 193.234 400 256S368.469 376.594 315.656 410.703C311.937 413.094 310.875 418.047 313.281 421.766C314.812 424.125 317.375 425.422 320 425.422C321.5 425.422 323 425.016 324.344 424.141C381.75 387.078 416 324.219 416 256S381.75 124.922 324.344 87.859ZM259.344 161.438C255.281 159.578 250.562 161.359 248.719 165.359C246.875 169.375 248.656 174.125 252.656 175.969C283.844 190.281 304 221.703 304 256S283.844 321.719 252.656 336.031C248.656 337.875 246.875 342.625 248.719 346.641C250.062 349.562 252.969 351.297 256 351.297C257.125 351.297 258.25 351.062 259.344 350.562C296.187 333.656 320 296.531 320 256S296.187 178.344 259.344 161.438Z"/></svg>
